.local/share/icons/Gruvbox-Plus-Dark/actions/16/format-node-line.svg

<svg xmlns="http://www.w3.org/2000/svg" width="16" height="16" viewBox="0 0 16 16">
 <defs>
  <style id="current-color-scheme" type="text/css">
   .ColorScheme-Text { color:#ebdbb2; } .ColorScheme-Highlight { color:#458588; }
  </style>
 </defs>
 <path style="fill:currentColor" class="ColorScheme-Text" d="M 12 1 L 12 2 L 12 3 L 12 3.3125 L 8.3125 7 L 6 7 L 6 9.3125 L 3.3125 12 L 3 12 L 2 12 L 1 12 L 1 15 L 4 15 L 4 12.6875 L 6.6875 10 L 9 10 L 9 7.6875 L 12.6875 4 L 15 4 L 15 1 L 12 1 z"/>
</svg>

<svg width="16" height="16" version="1.1" xmlns="http://www.w3.org/2000/svg">
  <defs>
    <style id="current-color-scheme" type="text/css">.ColorScheme-Text { color:#ebdbb2; } .ColorScheme-Highlight { color:#458588; }</style>
  </defs>
  <path class="ColorScheme-Text" d="m12 1v2.312l-3.688 3.688h-2.312v2.312l-2.688 2.688h-2.312v3h3v-2.312l2.688-2.688h2.312v-2.312l3.688-3.688h2.312v-3h-3z" fill="currentColor"/>
</svg>
